X:1
T:Title
%%score { ( 1 3 ) | 2 }
L:1/8
M:4/4
K:Bb
V:1 treble nm="Grand Piano"
V:3 treble 
V:2 bass 
V:1
 z4 z2[Q:1/4=118] F2 | B3 A [FB]2 [Fc]2 | [Fd]3 [Ec] [DB]2 [Fd]2 | [Ge]3 [Fd] [Ec]2 [DB]2 | %4
[M:3/4] c6 |[M:1/4] F2 |[M:4/4] [DB]3 [FA] [FB]2 c2 | d2 e2 [Ff]2 [Ge]2 | d3 c B2 A2 | %9
[M:3/4] [DB]6 |[M:1/4] B2 |[M:4/4] d6 z2 | e6 z2 | [Fc]2 [=EB]>[EB] [EA]2 [EG]2 |[M:3/4] F6 | %15
[M:1/4] B2 |[M:4/4] d6 z2 | e6 z2 | d2 c2 B2 A2 |[M:3/4] [DB]6 |] %20
V:2
 z4 z2 F,2 | [B,DF]3 [F,CF] [D,B,]2 [C,A,]2 | [B,,B,]3 [B,,B,] [B,,F,]2 [B,,B,]2 | %3
 [B,,B,]3 [B,,B,] [B,,B,]2 [B,,B,]2 |[M:3/4] [F,A,E]6 |[M:1/4] [F,E]2 | %6
[M:4/4] [B,,F,]3 [C,F,] [D,B,]2[K:treble] [F,A,F]2 | [B,F]2 [G,B,G]2[K:bass] [D,B,]2 [E,B,]2 | %8
 [F,B,F]3 [F,A,E] [F,B,D]2 [F,CE]2 |[M:3/4] [B,,B,]6 |[M:1/4] z2 |[M:4/4] z2 [B,,B,]2 [B,,B,]2 z2 | %12
 z2 [B,,B,]2 [B,,B,]2 [B,,B,]2 | [C,A,]2 [C,C]>[C,C] [C,C]2 [C,B,]2 |[M:3/4] [F,A,]6 |[M:1/4] z2 | %16
[M:4/4] z2 [B,,B,]2 [B,,B,]2 z2 | z2 [E,B,]2 [E,B,]2 [E,B,]>[E,B,] | %18
 [F,B,F]2 [F,A,E]2 [F,B,D]2 [F,CE]2 |[M:3/4] [B,,B,]6 |] %20
V:3
 x8 | x8 | x8 | x8 |[M:3/4] x6 |[M:1/4] x2 |[M:4/4] x8 | x8 | x8 |[M:3/4] x6 |[M:1/4] x2 | %11
[M:4/4] z2 F2 F2 B2 | z2 G2 G2 [Fd]2 | x8 |[M:3/4] x6 |[M:1/4] x2 |[M:4/4] z2 F2 F2 B2 | %17
 z2 G2 G2 [Ge]>[Ge] | x8 |[M:3/4] x6 |] %20

